src/assets/filled/Paypal.svg

<svg width="24" height="24" viewBox="0 0 24 24"  xmlns="http://www.w3.org/2000/svg">
<path d="M19 7C19 7.18 18.99 7.34999 18.97 7.51999C18.85 8.96999 18.21 10.28 17.24 11.24C16.16 12.33 14.66 13 13 13H9.86996C9.36996 13 8.94997 13.37 8.87997 13.86L8.11996 19.14C8.05996 19.53 7.77997 19.85 7.40997 19.95C7.31997 19.99 7.22997 20 7.12997 20H5.17996C4.55996 20 4.08997 19.45 4.18997 18.84L6.57995 4.51001C6.81995 3.06001 8.06998 2 9.53998 2H14C16.76 2 19 4.24 19 7Z" />
<path d="M21 10.9997C21 12.3797 20.44 13.6297 19.54 14.5397C18.63 15.4397 17.38 15.9997 16 15.9997H13.85C13.36 15.9997 12.94 16.3497 12.86 16.8397L12.14 21.1597C12.06 21.6497 11.64 21.9997 11.15 21.9997H8.21998C8.03998 21.9997 7.87997 21.9597 7.73997 21.8797C7.51997 21.7597 7.65998 21.4697 7.89998 21.3697C8.79998 21.0797 9.45999 20.3097 9.59999 19.3497L10.24 14.9297C10.28 14.6797 10.49 14.4997 10.73 14.4997H13C15.01 14.4997 16.9 13.7197 18.3 12.3097C19.13 11.4897 19.75 10.4797 20.11 9.38967C20.19 9.13967 20.52 9.08967 20.63 9.31967C20.87 9.83967 21 10.3997 21 10.9997Z" />
</svg>

<?xml version="1.0" encoding="UTF-8"?>
<svg width="24" height="24" viewBox="0 0 24 24" xmlns="http://www.w3.org/2000/svg">
 <path d="m19 7c0 0.18-0.01 0.34999-0.03 0.51999-0.12 1.45-0.76 2.76-1.73 3.72-1.08 1.09-2.58 1.76-4.24 1.76h-3.13c-0.5 0-0.91999 0.37-0.98999 0.86l-0.76001 5.28c-0.06 0.39-0.33999 0.71-0.70999 0.81-0.09 0.04-0.18 0.05-0.28 0.05h-1.95c-0.62 0-1.09-0.55-0.98999-1.16l2.39-14.33c0.24-1.45 1.49-2.51 2.96-2.51h4.46c2.76 0 5 2.24 5 5z"/>
 <path d="m21 11c0 1.38-0.56 2.63-1.46 3.54-0.91 0.9-2.16 1.46-3.54 1.46h-2.15c-0.49 0-0.91 0.35-0.99 0.84l-0.72 4.32c-0.08 0.49-0.5 0.84-0.99 0.84h-2.93c-0.18 0-0.34001-0.04-0.48001-0.12-0.22-0.12-0.07999-0.41 0.16001-0.51 0.9-0.29 1.56-1.06 1.7-2.02l0.64001-4.42c0.04-0.25 0.25-0.43 0.49-0.43h2.27c2.01 0 3.9-0.78 5.3-2.19 0.83-0.82 1.45-1.83 1.81-2.92 0.08-0.25 0.41-0.3 0.52-0.07 0.24 0.52 0.37 1.08 0.37 1.68z"/>
</svg>
